X:9
T:Miss Monaghan
S:Leo Rowsome
R:reel
E:6.5
I:speed 350
M:C|
K:D
{c}AF|{A}D2 ~D2 .FA~A2|GA{c}BG FA~A2|dedB {c}ABde|fedf ecAF|{A}D2 ~D2 .FA~A2|GA{c}BG F.AAB|dedB {c}ABdB|{c}AFEF {A}D2:|
de|fa~a2 {b}afdf|(3.g.fe fd edBc|dedB {c}ABde|fedf ~e2 de|fa~a2 {b}afdf|(3.g.fe fd edBc|dedB {c}ABdB|{c}AFEF {A}D2:|
